X:141 
T:Mount Scot Jig*, The
F:file ID: cre.5/141mounts
B:CRE5.029 (gan ainm)
M:6/8
Q:160
R:jig
K:G
D|GAG GBd|e2e efg|dBG dBG|FAA A2D|
GAG GBd|e2e efg|dBG cB/A/F|1 GAG G2:|\
[2 GAG GAB||
|:c2B cAF|d^cd efg|dBG dBG|FAA A2B|
c2B cAF|d^cd efg|dBG cB/A/F|1 GAG GAB:|\
[2 GAG G3|]


%%%

